Papirus-nordic/48x48/apps/com.yuenhoe.filedrawer.svg

<svg xmlns="http://www.w3.org/2000/svg" width="48" height="48" version="1">
 <rect style="opacity:0.2" width="40" height="26" x="4" y="17" rx="2" ry="2"/>
 <path style="fill:#6c9b9a" d="M 4,34 C 4,35.108 4.892,36 6,36 H 42 C 43.108,36 44,35.108 44,34 V 12 C 44,10.892 43.108,10 42,10 H 22 V 8 C 22,6.892 21.108,6 20,6 H 6 C 4.892,6 4,6.892 4,8"/>
 <rect style="opacity:0.2" width="40" height="26" x="4" y="15" rx="2" ry="2"/>
 <rect style="fill:#e4e4e4" width="36" height="16" x="6" y="13" rx="2" ry="2"/>
 <rect style="fill:#82abaa" width="40" height="26" x="4" y="16" rx="2" ry="2"/>
 <path style="opacity:0.1;fill:#ffffff" d="M 6,6 C 4.892,6 4,6.892 4,8 V 9 C 4,7.892 4.892,7 6,7 H 20 C 21.108,7 22,7.892 22,9 V 8 C 22,6.892 21.108,6 20,6 Z M 22,10 V 11 H 42 C 43.108,11 44,11.892 44,13 V 12 C 44,10.892 43.108,10 42,10 Z"/>
 <circle style="opacity:0.2" cx="36" cy="36" r="11"/>
 <circle style="fill:#28ccb2" cx="36" cy="35" r="11"/>
 <path style="fill:#ffffff;fill-rule:evenodd" d="m 36,30 c -1.5508,0.0151 -3.1121,0.36944 -4.4629,1.135 -0.53841,0.3507 -1.1848,0.80366 -1.6719,1.26 -0.76649,0.75058 -1.4225,1.6263 -1.8652,2.606 1.2149,2.6801 3.8859,4.6445 6.8242,4.9346 1.9274,0.21817 3.9444,-0.11487 5.6387,-1.0686 0.53839,-0.3507 1.1848,-0.80366 1.6719,-1.26 0.766,-0.751 1.422,-1.626 1.865,-2.606 -1.215,-2.68 -3.886,-4.645 -6.824,-4.935 C 36.7858,30.021 36.3928,30 35.9998,30 Z m 0,2.0004 c 1.607,-0.0356 3.0303,1.4021 3,3.0007 0.05149,1.7668 -1.709,3.2916 -3.4492,2.9616 -1.7576,-0.20637 -2.9921,-2.1782 -2.4141,-3.8485 0.36917,-1.2296 1.5758,-2.129 2.8633,-2.1138 z m 0,2.0004 a 1,1.0002 0 0 0 -1,1.0002 1,1.0002 0 0 0 1,1.0002 1,1.0002 0 0 0 0.99999,-1.0002 1,1.0002 0 0 0 -1,-0.999 z"/>
</svg>

<svg xmlns="http://www.w3.org/2000/svg" width="48" height="48" version="1"><rect width="40" height="26" x="4" y="17" rx="2" ry="2" opacity=".2"/><path d="M4 34c0 1.108.892 2 2 2h36c1.108 0 2-.892 2-2V12c0-1.108-.892-2-2-2H22V8c0-1.108-.892-2-2-2H6c-1.108 0-2 .892-2 2" fill="#6c9b9a"/><rect width="40" height="26" x="4" y="15" rx="2" ry="2" opacity=".2"/><rect width="36" height="16" x="6" y="13" rx="2" ry="2" fill="#e4e4e4"/><rect width="40" height="26" x="4" y="16" rx="2" ry="2" fill="#82abaa"/><path d="M6 6c-1.108 0-2 .892-2 2v1c0-1.108.892-2 2-2h14c1.108 0 2 .892 2 2V8c0-1.108-.892-2-2-2zm16 4v1h20c1.108 0 2 .892 2 2v-1c0-1.108-.892-2-2-2z" opacity=".1" fill="#fff"/><circle cx="36" cy="36" r="11" opacity=".2"/><circle cx="36" cy="35" r="11" fill="#28ccb2"/><path d="M36 30c-1.55.015-3.112.37-4.463 1.135-.538.35-1.185.804-1.672 1.26-.766.75-1.422 1.626-1.865 2.606 1.215 2.68 3.886 4.645 6.824 4.935 1.928.218 3.945-.115 5.639-1.069.538-.35 1.185-.804 1.672-1.26.766-.751 1.422-1.626 1.865-2.606-1.215-2.68-3.886-4.645-6.824-4.935-.39-.045-.783-.066-1.176-.066zm0 2c1.607-.035 3.03 1.402 3 3.001.051 1.767-1.709 3.292-3.45 2.962-1.757-.207-2.991-2.179-2.413-3.849.369-1.23 1.576-2.129 2.863-2.114zm0 2a1 1 0 0 0-1 1.001 1 1 0 0 0 1 1 1 1 0 0 0 1-1 1 1 0 0 0-1-.999z" fill="#fff" fill-rule="evenodd"/></svg>
